Numix/64/emotes/face-hug-right.svg

<?xml version="1.0" encoding="UTF-8" standalone="no"?>
<svg
   xmlns:dc="http://purl.org/dc/elements/1.1/"
   xmlns:cc="http://creativecommons.org/ns#"
   xmlns:rdf="http://www.w3.org/1999/02/22-rdf-syntax-ns#"
   xmlns:svg="http://www.w3.org/2000/svg"
   xmlns="http://www.w3.org/2000/svg"
   xmlns:sodipodi="http://sodipodi.sourceforge.net/DTD/sodipodi-0.dtd"
   xmlns:inkscape="http://www.inkscape.org/namespaces/inkscape"
   width="64px"
   height="64px"
   viewBox="0 0 48 48"
   version="1.1"
   id="svg139"
   inkscape:version="0.91 r"
   sodipodi:docname="face-hug-right.svg">
  <metadata
     id="metadata158">
    <rdf:RDF>
      <cc:Work
         rdf:about="">
        <dc:format>image/svg+xml</dc:format>
        <dc:type
           rdf:resource="http://purl.org/dc/dcmitype/StillImage" />
      </cc:Work>
    </rdf:RDF>
  </metadata>
  <defs
     id="defs156" />
  <sodipodi:namedview
     pagecolor="#ffffff"
     bordercolor="#666666"
     borderopacity="1"
     objecttolerance="10"
     gridtolerance="10"
     guidetolerance="10"
     inkscape:pageopacity="0"
     inkscape:pageshadow="2"
     inkscape:window-width="640"
     inkscape:window-height="480"
     id="namedview154" />
  <g
     id="surface1">
    <path
       style=" stroke:none;fill-rule:nonzero;fill:rgb(81.568627%,62.745098%,0%);fill-opacity:1;"
       d="M 9 24.5 C 9 23.671875 7.433594 23 5.5 23 C 3.566406 23 2 23.671875 2 24.5 C 2 25.328125 3.566406 26 5.5 26 C 7.433594 26 9 25.328125 9 24.5 Z M 9 24.5 "
       id="path142" />
    <path
       style=" stroke:none;fill-rule:nonzero;fill:rgb(100%,85.490196%,36.862745%);fill-opacity:1;"
       d="M 42 24 C 42 32.5625 33.941406 39.5 24 39.5 C 14.058594 39.5 6 32.5625 6 24 C 6 15.441406 14.058594 8.5 24 8.5 C 33.941406 8.5 42 15.441406 42 24 Z M 42 24 "
       id="path144" />
    <path
       style=" stroke:none;fill-rule:nonzero;fill:rgb(39.607843%,39.607843%,39.607843%);fill-opacity:1;"
       d="M 14 18 C 12.621094 18 11.5 19.121094 11.5 20.5 C 11.5 20.753906 11.539062 21.003906 11.617188 21.246094 C 11.945312 20.207031 12.910156 19.5 14 19.5 C 15.09375 19.5 16.058594 20.210938 16.382812 21.253906 C 16.460938 21.011719 16.5 20.753906 16.5 20.5 C 16.5 19.121094 15.378906 18 14 18 Z M 14 18 "
       id="path146" />
    <path
       style=" stroke:none;fill-rule:nonzero;fill:rgb(39.607843%,39.607843%,39.607843%);fill-opacity:1;"
       d="M 26 18 C 24.621094 18 23.5 19.121094 23.5 20.5 C 23.5 20.753906 23.539062 21.003906 23.617188 21.246094 C 23.945312 20.207031 24.910156 19.5 26 19.5 C 27.09375 19.5 28.058594 20.210938 28.382812 21.253906 C 28.460938 21.011719 28.5 20.753906 28.5 20.5 C 28.5 19.121094 27.378906 18 26 18 Z M 26 18 "
       id="path148" />
    <path
       style=" stroke:none;fill-rule:nonzero;fill:rgb(39.607843%,39.607843%,39.607843%);fill-opacity:1;"
       d="M 13.097656 28 C 13.667969 30.886719 16.585938 33 20 33 C 23.414062 32.996094 26.324219 30.882812 26.894531 28 L 25.933594 28 C 25.507812 29.71875 22.980469 30.996094 20 31 C 17.019531 30.996094 14.492188 29.71875 14.066406 28 Z M 13.097656 28 "
       id="path150" />
    <path
       style=" stroke:none;fill-rule:nonzero;fill:rgb(81.568627%,62.745098%,0%);fill-opacity:1;"
       d="M 38 26.5 C 38 25.671875 36.433594 25 34.5 25 C 32.566406 25 31 25.671875 31 26.5 C 31 27.328125 32.566406 28 34.5 28 C 36.433594 28 38 27.328125 38 26.5 Z M 38 26.5 "
       id="path152" />
  </g>
</svg>

<svg xmlns="http://www.w3.org/2000/svg" width="64" height="64" viewBox="0 0 48 48">
 <g>
  <path d="m 9 24.5 c 0 -0.828 -1.566 -1.5 -3.5 -1.5 c -1.934 0 -3.5 0.672 -3.5 1.5 c 0 0.828 1.566 1.5 3.5 1.5 c 1.934 0 3.5 -0.672 3.5 -1.5 m 0 0" style="fill:#cf9f00;fill-opacity:1;stroke:none;fill-rule:nonzero"/>
  <path d="m 42 24 c 0 8.563 -8.06 15.5 -18 15.5 c -9.941 0 -18 -6.938 -18 -15.5 c 0 -8.559 8.06 -15.5 18 -15.5 c 9.941 0 18 6.941 18 15.5 m 0 0" style="fill:#ffd95d;fill-opacity:1;stroke:none;fill-rule:nonzero"/>
  <path d="m 14 18 c -1.379 0 -2.5 1.121 -2.5 2.5 c 0 0.254 0.039 0.504 0.117 0.746 c 0.328 -1.039 1.293 -1.746 2.383 -1.746 c 1.094 0 2.059 0.711 2.383 1.754 c 0.078 -0.242 0.117 -0.5 0.117 -0.754 c 0 -1.379 -1.121 -2.5 -2.5 -2.5 m 0 0" style="fill:#646464;fill-opacity:1;stroke:none;fill-rule:nonzero"/>
  <path d="m 26 18 c -1.379 0 -2.5 1.121 -2.5 2.5 c 0 0.254 0.039 0.504 0.117 0.746 c 0.328 -1.039 1.293 -1.746 2.383 -1.746 c 1.094 0 2.059 0.711 2.383 1.754 c 0.078 -0.242 0.117 -0.5 0.117 -0.754 c 0 -1.379 -1.121 -2.5 -2.5 -2.5 m 0 0" style="fill:#646464;fill-opacity:1;stroke:none;fill-rule:nonzero"/>
  <path d="m 13.1 28 c 0.57 2.887 3.488 5 6.902 5 c 3.414 -0.004 6.324 -2.117 6.895 -5 l -0.961 0 c -0.426 1.719 -2.953 2.996 -5.934 3 c -2.98 -0.004 -5.508 -1.281 -5.934 -3 m -0.969 0" style="fill:#646464;fill-opacity:1;stroke:none;fill-rule:nonzero"/>
  <path d="m 38 26.5 c 0 -0.828 -1.566 -1.5 -3.5 -1.5 c -1.934 0 -3.5 0.672 -3.5 1.5 c 0 0.828 1.566 1.5 3.5 1.5 c 1.934 0 3.5 -0.672 3.5 -1.5 m 0 0" style="fill:#cf9f00;fill-opacity:1;stroke:none;fill-rule:nonzero"/>
 </g>
</svg>
